flaticon/grooming/epilator.svg

<svg xmlns="http://www.w3.org/2000/svg" width="32" height="32" viewBox="0 0 24 24">
    <path d="M 20.757812 13.472656 C 20.757812 11.242188 20.125 9.09375 19.707031 8 C 19.65625 7.867188 19.589844 7.746094 19.507812 7.632812 C 19.507812 7.601562 19.503906 7.566406 19.496094 7.535156 L 18.316406 3.664062 C 18.292969 3.617188 18.265625 3.578125 18.234375 3.539062 L 17.433594 0.335938 C 17.390625 0.125 17.136719 0 16.925781 0.0429688 C 16.714844 0.0859375 16.589844 0.335938 16.632812 0.546875 L 17.347656 3.367188 L 15.789062 3.367188 L 15.789062 0.421875 C 15.789062 0.167969 15.621094 0 15.367188 0 C 15.117188 0 14.949219 0.167969 14.949219 0.421875 L 14.949219 3.367188 L 14.105469 3.367188 L 14.105469 0.421875 C 14.105469 0.167969 13.9375 0 13.683594 0 C 13.433594 0 13.261719 0.167969 13.261719 0.421875 L 13.261719 3.367188 L 12.421875 3.367188 L 12.421875 0.421875 C 12.421875 0.167969 12.253906 0 12 0 C 11.746094 0 11.578125 0.167969 11.578125 0.421875 L 11.578125 3.367188 L 10.738281 3.367188 L 10.738281 0.421875 C 10.738281 0.167969 10.570312 0 10.316406 0 C 10.0625 0 9.894531 0.167969 9.894531 0.421875 L 9.894531 3.367188 L 9.050781 3.367188 L 9.050781 0.421875 C 9.050781 0.167969 8.882812 0 8.632812 0 C 8.378906 0 8.210938 0.167969 8.210938 0.421875 L 8.210938 3.367188 L 6.652344 3.367188 L 7.328125 0.546875 C 7.410156 0.335938 7.242188 0.0859375 7.03125 0.0429688 C 6.820312 -0.0429688 6.570312 0.125 6.527344 0.335938 L 5.714844 3.585938 C 5.703125 3.609375 5.691406 3.636719 5.683594 3.664062 L 4.589844 7.425781 C 4.421875 7.585938 4.289062 7.785156 4.210938 8 C 3.832031 9.050781 3.15625 11.242188 3.15625 13.472656 C 3.15625 13.683594 3.074219 19.03125 5.851562 21.808594 C 5.9375 21.894531 8.503906 24 12 24 C 15.496094 24 18.0625 21.894531 18.105469 21.769531 C 20.84375 19.03125 20.757812 13.769531 20.757812 13.472656 Z M 6.398438 4.210938 L 17.515625 4.210938 L 18.359375 6.988281 L 15.535156 6.316406 C 13.222656 5.769531 10.738281 5.769531 8.378906 6.316406 L 5.558594 6.988281 Z M 17.640625 21.136719 C 17.601562 21.179688 15.199219 23.15625 12 23.15625 C 8.800781 23.15625 6.398438 21.179688 6.398438 21.179688 C 3.914062 18.695312 4 13.558594 4 13.472656 C 4 11.367188 4.632812 9.304688 5.054688 8.253906 C 5.109375 8.113281 5.199219 7.992188 5.316406 7.914062 C 5.386719 7.886719 5.460938 7.859375 5.515625 7.832031 L 8.632812 7.117188 C 9.953125 6.816406 11.304688 6.695312 12.652344 6.75 C 12.660156 6.75 12.664062 6.75 12.671875 6.75 C 12.945312 6.761719 13.21875 6.78125 13.492188 6.808594 C 13.722656 6.828125 13.949219 6.855469 14.179688 6.890625 C 14.371094 6.917969 14.558594 6.945312 14.75 6.980469 C 14.96875 7.019531 15.191406 7.066406 15.410156 7.117188 L 18.527344 7.832031 C 18.738281 7.875 18.90625 8.042969 18.988281 8.253906 C 19.367188 9.304688 20 11.328125 20 13.472656 C 20 13.515625 20.085938 18.652344 17.640625 21.136719 Z M 17.640625 21.136719"/>
    <path d="M 12 10.105469 C 10.820312 10.105469 9.894531 11.03125 9.894531 12.210938 L 9.894531 16.421875 C 9.894531 17.601562 10.820312 18.527344 12 18.527344 C 13.179688 18.527344 14.105469 17.601562 14.105469 16.421875 L 14.105469 12.210938 C 14.105469 11.03125 13.179688 10.105469 12 10.105469 Z M 12 10.949219 C 12.714844 10.949219 13.261719 11.535156 13.261719 12.210938 L 13.261719 13.894531 L 10.738281 13.894531 L 10.738281 12.210938 C 10.738281 11.496094 11.285156 10.949219 12 10.949219 Z M 12 17.683594 C 11.285156 17.683594 10.738281 17.136719 10.738281 16.421875 L 10.738281 14.738281 L 13.261719 14.738281 L 13.261719 16.421875 C 13.261719 17.136719 12.714844 17.683594 12 17.683594 Z M 12 17.683594"/>
</svg>

<svg xmlns="http://www.w3.org/2000/svg" width="32" height="32" viewBox="0 0 24 24">
    <path d="M20.758 13.473c0-2.23-.633-4.38-1.051-5.473a1.588 1.588 0 0 0-.2-.367.417.417 0 0 0-.01-.098l-1.18-3.87a.69.69 0 0 0-.083-.126l-.8-3.203C17.39.125 17.137 0 16.926.043c-.211.043-.336.293-.293.504l.715 2.82h-1.559V.422c0-.254-.168-.422-.422-.422-.25 0-.418.168-.418.422v2.945h-.844V.422c0-.254-.168-.422-.421-.422-.25 0-.422.168-.422.422v2.945h-.84V.422C12.422.168 12.254 0 12 0s-.422.168-.422.422v2.945h-.84V.422c0-.254-.168-.422-.422-.422s-.421.168-.421.422v2.945H9.05V.422C9.05.168 8.883 0 8.633 0c-.254 0-.422.168-.422.422v2.945H6.652l.676-2.82C7.41.336 7.242.086 7.031.043c-.21-.086-.46.082-.504.293l-.812 3.25a.466.466 0 0 0-.031.078L4.59 7.426c-.168.16-.3.36-.38.574-.378 1.05-1.054 3.242-1.054 5.473 0 .21-.082 5.558 2.696 8.336C5.937 21.895 8.504 24 12 24c3.496 0 6.063-2.105 6.105-2.23 2.739-2.739 2.653-8 2.653-8.297zM6.398 4.21h11.118l.843 2.777-2.824-.672a15.812 15.812 0 0 0-7.156 0l-2.82.672zm11.243 16.926c-.04.043-2.442 2.02-5.641 2.02-3.2 0-5.602-1.977-5.602-1.977C3.914 18.695 4 13.559 4 13.473c0-2.106.633-4.168 1.055-5.22a.716.716 0 0 1 .261-.339c.07-.027.145-.055.2-.082l3.117-.715a15.3 15.3 0 0 1 4.02-.367h.019c.273.012.547.031.82.059.23.02.457.046.688.082a13.203 13.203 0 0 1 1.23.227l3.117.714c.211.043.38.211.461.422.38 1.05 1.012 3.074 1.012 5.219 0 .043.086 5.18-2.36 7.664zm0 0"/>
    <path d="M12 10.105c-1.18 0-2.105.926-2.105 2.106v4.21c0 1.18.925 2.106 2.105 2.106s2.105-.925 2.105-2.105V12.21c0-1.18-.925-2.106-2.105-2.106zm0 .844c.715 0 1.262.586 1.262 1.262v1.684h-2.524V12.21A1.24 1.24 0 0 1 12 10.949zm0 6.735a1.24 1.24 0 0 1-1.262-1.262v-1.684h2.524v1.684A1.24 1.24 0 0 1 12 17.684zm0 0"/>
</svg>
